material/.icons/material/content-save-settings-outline.svg

<?xml version="1.0" encoding="UTF-8"?><!DOCTYPE svg PUBLIC "-//W3C//DTD SVG 1.1//EN" "http://www.w3.org/Graphics/SVG/1.1/DTD/svg11.dtd"><svg xmlns="http://www.w3.org/2000/svg" xmlns:xlink="http://www.w3.org/1999/xlink" version="1.1" id="mdi-content-save-settings-outline" width="24" height="24" viewBox="0 0 24 24"><path d="M7 22H9V24H7V22M11 22H13V24H11V22M15 22H17V24H15V22M17 2H5C3.89 2 3 2.9 3 4V18C3 19.1 3.89 20 5 20H19C20.1 20 21 19.1 21 18V6L17 2M19 18H5V4H16.17L19 6.83V18M12 11C10.34 11 9 12.34 9 14S10.34 17 12 17 15 15.66 15 14 13.66 11 12 11M6 5H15V9H6V5Z" /></svg>

<svg xmlns="http://www.w3.org/2000/svg" viewBox="0 0 24 24"><path d="M7 22h2v2H7v-2m4 0h2v2h-2v-2m4 0h2v2h-2v-2m2-20H5a2 2 0 00-2 2v14a2 2 0 002 2h14c1.1 0 2-.9 2-2V6l-4-4m2 16H5V4h11.17L19 6.83V18m-7-7c-1.66 0-3 1.34-3 3s1.34 3 3 3 3-1.34 3-3-1.34-3-3-3M6 5h9v4H6V5z"/></svg>
